icons/palliative-care_fill.svg

<svg width="48" height="48" viewBox="0 0 48 48" fill="none" xmlns="http://www.w3.org/2000/svg">
<path d="M17.0313 7C11.8117 7 8 12.4529 8 18.3333C8 19.9137 8.24643 21.4257 8.67984 22.8627C8.89182 23.5656 9.14855 24.2506 9.44308 24.9169C13.5487 34.2045 25 39.8666 25 39.8666C25 39.8666 27.533 38.5335 30.6436 36.1725C28.6744 34.7809 25.9501 32.4265 24.6363 29.3519C24.4792 28.9843 24.3423 28.6063 24.2292 28.2185C23.9981 27.4257 23.8667 26.5914 23.8667 25.7195C23.8667 22.4752 25.8996 19.4667 28.6833 19.4667C30.6151 19.4667 32.0485 20.8165 32.9333 22.7313C33.8181 20.8166 35.2515 19.4667 37.1833 19.4667C39.0246 19.4667 40.5372 20.7828 41.3505 22.6125C41.7651 21.2422 42 19.8129 42 18.3333C42 12.4538 38.1889 7 32.9687 7C29.3466 7 26.6589 9.44674 25 12.9171C23.341 9.44652 20.6533 7 17.0313 7Z" fill="black"/>
<path d="M40.4556 25.1013C41.0815 25.1099 41.5819 25.6243 41.5733 26.2502C41.5222 29.9615 39.7276 32.4863 37.9844 34.0517C37.1167 34.8309 36.2553 35.3801 35.6099 35.7356C35.2862 35.914 35.0138 36.0452 34.818 36.1335C34.72 36.1777 34.6409 36.2113 34.5839 36.2348C34.5553 36.2465 34.5323 36.2557 34.5151 36.2625L34.4937 36.2708L34.4865 36.2736L34.4825 36.2751C33.8966 36.4954 33.2421 36.1994 33.0218 35.6135C32.8018 35.0287 33.0968 34.3764 33.6806 34.155L33.686 34.1529C33.6926 34.1503 33.7047 34.1455 33.7221 34.1383C33.7569 34.124 33.8125 34.1005 33.886 34.0673C34.0333 34.0009 34.2511 33.8963 34.5163 33.7503C35.0487 33.457 35.7595 33.0032 36.4699 32.3653C37.8826 31.0966 39.2667 29.1313 39.3068 26.219C39.3154 25.5931 39.8298 25.0927 40.4556 25.1013Z" fill="black"/>
</svg>

<svg
  xmlns="http://www.w3.org/2000/svg"
  width="24"
  height="24"
  viewBox="0 0 24 24"
  fill="none"
  stroke="currentColor"
  stroke-width="2"
  stroke-linecap="round"
  stroke-linejoin="round"
>
  <path d="M17.031 7C11.811 7 8 12.453 8 18.333c0 1.58.246 3.093.68 4.53q.32 1.055.763 2.054C13.55 34.205 25 39.867 25 39.867s2.533-1.334 5.644-3.694c-1.97-1.392-4.694-3.747-6.008-6.821a10 10 0 0 1-.407-1.134 8.9 8.9 0 0 1-.362-2.498c0-3.245 2.033-6.253 4.816-6.253 1.932 0 3.365 1.35 4.25 3.264.885-1.914 2.319-3.264 4.25-3.264 1.842 0 3.354 1.316 4.167 3.146.415-1.37.65-2.8.65-4.28C42 12.453 38.189 7 32.969 7c-3.622 0-6.31 2.447-7.969 5.917C23.341 9.447 20.653 7 17.031 7" />
  <path d="M40.456 25.101a1.133 1.133 0 0 1 1.117 1.15c-.05 3.71-1.845 6.235-3.589 7.8a13 13 0 0 1-2.374 1.685 11 11 0 0 1-1.026.499q-.044.016-.069.028l-.021.008-.008.003-.003.001a1.134 1.134 0 0 1-.802-2.12l.005-.002.036-.015.164-.07a10.638 10.638 0 0 0 2.584-1.702c1.413-1.27 2.797-3.235 2.837-6.147a1.133 1.133 0 0 1 1.149-1.118" />
</svg>
